symbolia-arc/scalable/actions/do-not-distrub.svg

<?xml version="1.0" encoding="UTF-8" standalone="no"?>
<svg
   height="24"
   viewBox="0 0 24 24"
   width="24"
   version="1.1"
   id="svg4"
   sodipodi:docname="notifications-disabled.svg"
   inkscape:version="1.1 (c68e22c387, 2021-05-23)"
   xmlns:inkscape="http://www.inkscape.org/namespaces/inkscape"
   xmlns:sodipodi="http://sodipodi.sourceforge.net/DTD/sodipodi-0.dtd"
   xmlns="http://www.w3.org/2000/svg"
   xmlns:svg="http://www.w3.org/2000/svg">
  <defs
     id="defs8" />
  <sodipodi:namedview
     id="namedview6"
     pagecolor="#ffffff"
     bordercolor="#666666"
     borderopacity="1.0"
     inkscape:pageshadow="2"
     inkscape:pageopacity="0.0"
     inkscape:pagecheckerboard="0"
     showgrid="false"
     inkscape:zoom="14.458611"
     inkscape:cx="-5.8096869"
     inkscape:cy="18.259016"
     inkscape:window-width="1920"
     inkscape:window-height="1016"
     inkscape:window-x="0"
     inkscape:window-y="0"
     inkscape:window-maximized="1"
     inkscape:current-layer="svg4" />
  <path fill="#B9D4F0"
     id="path2"
     d="M 12 2.5 C 11.17 2.5 10.5 3.17 10.5 4 L 10.5 4.6796875 C 10.26 4.7396875 10.030547 4.8301562 9.8105469 4.9101562 L 18 13.099609 L 18 11 C 18 7.93 16.36 5.3596875 13.5 4.6796875 L 13.5 4 C 13.5 3.17 12.83 2.5 12 2.5 z M 4.5957031 3.0214844 A 1 1 0 0 0 3.9589844 3.3125 A 1 1 0 0 0 3.9589844 4.7265625 A 1 1 0 0 0 4.0195312 4.7792969 L 6.8105469 7.5703125 C 6.2905469 8.5703125 6 9.73 6 11 L 6 16 L 4.7109375 17.289062 C 4.0809375 17.919062 4.5201563 19 5.4101562 19 L 18.240234 19 L 19.931641 20.691406 A 1 1 0 0 0 19.945312 20.707031 A 1 1 0 0 0 19.960938 20.720703 L 19.980469 20.740234 L 19.982422 20.738281 A 1 1 0 0 0 21.359375 20.707031 A 1 1 0 0 0 21.359375 19.292969 A 1 1 0 0 0 21.3125 19.251953 L 5.4101562 3.3496094 A 1 1 0 0 0 5.3730469 3.3125 A 1 1 0 0 0 4.5957031 3.0214844 z M 10 20 C 10 21.1 10.89 22 12 22 C 13.1 22 14 21.1 14 20 L 10 20 z " />
</svg>

<svg xmlns="http://www.w3.org/2000/svg" height="24" viewBox="0 0 24 24" width="24"><path fill="#B9D4F0" d="M12 22c1.1 0 2-.9 2-2h-4c0 1.1.89 2 2 2zm6-11c0-3.07-1.64-5.64-4.5-6.32V4c0-.83-.67-1.5-1.5-1.5s-1.5.67-1.5 1.5v.68c-.24.06-.47.15-.69.23L18 13.1V11zM5.41 3.35L4 4.76l2.81 2.81C6.29 8.57 6 9.73 6 11v5l-1.29 1.29c-.63.63-.19 1.71.7 1.71h12.83l1.74 1.74 1.41-1.41L5.41 3.35z"/></svg>
